X: 159
T: La Boutonniere
%R: jig
B: Chas & Sam Thompson "Twenty Four Country Dances for the Year 1779", London 1779, p.80 #1
F: http://www.vwml.org/browse/browse-collections-dance-tune-books/browse-thompsons1779
Z: 2014 John Chambers <jc:trillian.mit.edu> (added dance description)
M: 6/8
L: 1/8
K: D
% - - - - - - - - - - - - - - - - - - - - - - - - - - - - -
|:\
A2A ABc | d2A FGA | B2G EFG | A2F D3 |\
ABA ABc | dcd Bcd | ecA EF^G | A2A A3 :|
|:\
a2a afd | Bcd efg | g2g gec | ABc def |\
A2A AGF | BGE EFG | AFD DEC | D2D D3 :|
% - - - - - - - - - - Dance description - - - - - - - - - -
%%begintext align
%%   First Man & 2d Wo. give right hands Ballance & Rigadoon
%% then turn .|. First Wo. & 2d Man do the same :|. 1st Cu. lead
%% down two Cu. the 2d & 3d Cu. following .|: then cast off two
%% Cu. & lead to the top the 2d & 3d Cu. following :|: 1st & 2d
%% Cu. change sides & return .||. lead down one Cu. Allemande
%% over head & Rigadoon :||. lead 3 to the Wall & return .||:
%% hands Six half round and back again :||:
%%endtext

%%sep 1 1 500
%%sep 1 1 500
